X: 2
T: Old Crossroads, The
Z: ceolachan
S: https://thesession.org/tunes/3659#setting16664
R: barndance
M: 4/4
L: 1/8
K: Ador
|: e |A>^G AB c>B cd | e2 a2 ge- ed | c>B ce dB GA | Bc/B/ AB/A/ GE- EG |
A>^G AB c>B cd | e2 a2 ge- ed | c>B ce d>B GA | B2 A>^G A2 :|
|: (3Bcd |ea z^g a2 =ga | bc/b/ ab/a/ ge- e2 | d3 e g3 a | ge c/d/e/f/ ga/g/ ed |
ea- ab a2 g>a | b2 a2 ge- ed | c>B ce dB GA | B2 A^G A2 :|
